X:21
T:Under the Table
R:jig
C:Paul S. Cranford
O:Cape Breton Island
S:http://www.cranfordpub.com
D:currently unrecorded
B:currently unpublished in book form
Z:psc, updated 4/3/06
N:
H:                                                        copyrights Cranford Publications, SOCAN
L:1/8
Q:300
M:6/8
K:Amix
z|EAd cAG|Aca g2 e|age dce|dcA G2 A|
EAd cAG|Aca g2 e|age dcA|Gec A2:|
|:c|edc dGG|dcB cAA|edc dGG|def e2 c|
edc dGG|dcB caa|age dGG|Gec A2:|
